X: 72
T:Villey Vous Dance,1st part. JNu.40
T:Voulez Vous Danceraka. JNu.40
M:6/8
L:1/8
Q:100
S:James Nuttall MS,c1830,Rossendale,East Lancs.
R:Quadrille
O:England
A:East Lancashire
Z:vmp.Manchester Morris Men
K:D
"primo"A/d/|f2f f2f|ede d2d|c2d e2c|d2e f2A|!
f2f f2f|ede def|g2f e2d|ABc d2:|!
|:f|e2e c2A|def e2a|e2e c2A|def e2a|!
a2^g ^g2f|f2e e2d|d2c c2A|BAB A2:|!
|:f|a2a a2a|=gfg f2f|e2f g2e|f2g a2A|!
f2f f2f|ede def|g2f e2d|ABc d2:|]
